huawei.svg

<?xml version="1.0" encoding="UTF-8"?>
<svg viewBox="0 0 24 24" version="1.1" xmlns="http://www.w3.org/2000/svg" xmlns:xlink="http://www.w3.org/1999/xlink">
    <title>Huawei</title>
            <path d="M10.3333548,14.0431798 C10.3594155,14.0237473 10.3659306,13.9848824 10.3529003,13.952495 C8.55639532,10.1135007 6.31520861,6.49616927 3.67485693,3.17396591 C3.67485693,3.17396591 1.57697404,5.15607524 1.72682282,7.14466204 C1.79771377,8.07059287 2.23602632,8.93049586 2.94515853,9.53485269 C4.77591968,11.3096826 9.2062314,13.5508912 10.2356274,14.0626122 C10.2682032,14.0755672 10.3072942,14.0690897 10.3333548,14.0431798 M9.64926254,15.5589104 C9.63623224,15.5200455 9.59714124,15.4941356 9.55153509,15.4941356 L2.17636915,15.7467574 C2.97773436,17.1653258 4.32637334,18.2664977 5.72713369,17.9296686 C6.69789315,17.6900018 8.88698832,16.1677937 9.61017159,15.6495952 C9.66880804,15.6042528 9.64926254,15.5653879 9.64926254,15.5589104 M9.76002034,14.9046848 C9.79911134,14.8463875 9.73395969,14.7945676 9.73395969,14.7945676 C6.49592306,12.6181339 0.215304708,9.27575346 0.215304708,9.27575346 C-0.206653182,10.561607 -0.00149700116,11.9695366 0.770145557,13.083471 C1.54178811,14.1974054 2.79168384,14.8899724 4.15046394,14.9565047 C4.2612217,14.9759371 8.53516948,14.9565047 9.68183839,14.9500272 C9.71441419,14.9435497 9.74047484,14.9305947 9.76002034,14.9046848 M10.2486577,0.00647748144 C9.92941463,0.0323874073 9.06289777,0.233189332 9.06289777,0.233189332 C7.10834849,0.731955404 6.64577185,2.50030784 6.64577185,2.50030784 C6.28743781,3.60795717 6.652287,4.83220114 6.652287,4.83220114 C7.30380343,7.70820291 10.5092643,12.4432418 11.1998716,13.4342965 C11.2454778,13.4861164 11.2845688,13.4666839 11.2845688,13.4666839 C11.3236598,13.453729 11.3562356,13.4213416 11.3562356,13.3759992 C12.4247225,2.80474947 10.2486577,0.00647748144 10.2486577,0.00647748144 M12.6918443,13.453729 C12.7309353,13.4666839 12.7765414,13.453729 12.7960869,13.4148641 C13.5062398,12.3978995 16.6921551,7.68877046 17.3436716,4.82572367 C17.3436716,4.82572367 17.6954904,3.43954265 17.3567019,2.49383036 C17.3567019,2.49383036 16.8745797,0.699567995 14.9200304,0.226711851 C14.9200304,0.226711851 14.3597263,0.0842072588 13.7603312,0 C13.7603312,0 11.571236,2.79827198 12.639723,13.3695217 C12.6332078,13.4083866 12.6592684,13.440774 12.6918443,13.453729 M14.4379083,15.5006131 C14.4028204,15.5076544 14.3721911,15.5287366 14.3532112,15.5589104 C14.346696,15.5977753 14.3532112,15.6301627 14.3792718,15.6560727 C15.0829095,16.1613162 17.2263986,17.651137 18.2557946,17.9361461 C18.2557946,17.9361461 20.1647377,18.5838943 21.8195894,15.7532349 L14.4379083,15.5006131 Z M23.787169,9.26279848 C23.787169,9.26279848 17.519581,12.6116564 14.2750292,14.7880901 C14.2424534,14.8140001 14.2229079,14.852865 14.2359382,14.8917299 C14.2359382,14.8917299 14.268514,14.9500272 14.3141202,14.9500272 C15.4738194,14.9500272 19.8650401,14.9565047 19.9823131,14.9370722 C20.4188291,14.9046848 20.8488299,14.8075226 21.2527701,14.6455856 C21.2527701,14.6455856 22.8164095,14.153297 23.6242899,12.3849445 C23.6242899,12.3849445 24.3474731,10.9469436 23.787169,9.26279848 M13.6821492,14.0431798 C13.7082099,14.0626122 13.7473009,14.0690897 13.7798767,14.0496573 C14.8353333,13.5249813 19.2330692,11.3032051 21.0508,9.53485269 C21.0508,9.53485269 22.2039841,8.61505033 22.2626206,7.13170706 C22.3929239,5.07834544 20.3145864,3.17396591 20.3145864,3.17396591 C20.3145864,3.17396591 16.4706395,7.80536516 13.6495734,13.9265851 C13.6403862,13.9684141 13.6525791,14.0120545 13.6821492,14.0431798" fill="#CE0E2D" ></path>
</svg>

<svg viewBox="0 0 24 24" xmlns="http://www.w3.org/2000/svg"><path d="M10.333 14.043c.026-.02.033-.058.02-.09A54.345 54.345 0 0 0 3.675 3.173s-2.098 1.982-1.948 3.97c.07.927.509 1.786 1.218 2.39 1.83 1.776 6.261 4.017 7.29 4.529a.091.091 0 0 0 .098-.02M9.65 15.56a.1.1 0 0 0-.097-.065l-7.376.253c.802 1.418 2.15 2.52 3.551 2.183.97-.24 3.16-1.762 3.883-2.28.059-.046.04-.085.04-.091m.11-.654c.04-.059-.026-.11-.026-.11C6.496 12.618.215 9.275.215 9.275a4.319 4.319 0 0 0 .555 3.808 4.371 4.371 0 0 0 3.38 1.874c.111.019 4.385 0 5.532-.007a.121.121 0 0 0 .078-.045M10.249.006c-.32.026-1.186.227-1.186.227C7.108.732 6.646 2.5 6.646 2.5c-.359 1.108.006 2.332.006 2.332.652 2.876 3.857 7.611 4.548 8.602.045.052.085.033.085.033.039-.013.071-.046.071-.091C12.425 2.805 10.25.006 10.25.006m2.443 13.448c.039.013.085 0 .104-.04.71-1.016 3.896-5.725 4.548-8.588 0 0 .351-1.386.013-2.332 0 0-.482-1.794-2.437-2.267 0 0-.56-.143-1.16-.227 0 0-2.189 2.798-1.12 13.37-.007.038.02.07.052.084m1.746 2.047a.13.13 0 0 0-.085.058c-.006.039 0 .071.026.097.704.505 2.847 1.995 3.877 2.28 0 0 1.909.648 3.564-2.183l-7.382-.252Zm9.35-6.238s-6.268 3.349-9.513 5.525c-.033.026-.052.065-.04.104 0 0 .034.058.08.058 1.159 0 5.55.007 5.667-.013.437-.032.867-.13 1.27-.291 0 0 1.564-.493 2.372-2.261 0 0 .723-1.438.163-3.122m-10.105 4.78c.026.02.065.026.098.007 1.055-.525 5.453-2.747 7.27-4.515 0 0 1.154-.92 1.213-2.403.13-2.054-1.948-3.958-1.948-3.958S16.47 7.805 13.65 13.927a.129.129 0 0 0 .032.116" fill="#CE0E2D"/></svg>
